icons/svg/transport/dock.svg

<?xml version="1.0" encoding="UTF-8" standalone="no"?>
<!-- Created with Inkscape (http://www.inkscape.org/) -->

<svg
   xmlns:dc="http://purl.org/dc/elements/1.1/"
   xmlns:cc="http://creativecommons.org/ns#"
   xmlns:rdf="http://www.w3.org/1999/02/22-rdf-syntax-ns#"
   xmlns:svg="http://www.w3.org/2000/svg"
   xmlns="http://www.w3.org/2000/svg"
   xmlns:sodipodi="http://sodipodi.sourceforge.net/DTD/sodipodi-0.dtd"
   xmlns:inkscape="http://www.inkscape.org/namespaces/inkscape"
   version="1.0"
   width="580"
   height="580"
   id="svg2"
   sodipodi:version="0.32"
   inkscape:version="0.48.4 r9939"
   sodipodi:docname="marina.svg"
   inkscape:output_extension="org.inkscape.output.svg.inkscape">
  <metadata
     id="metadata2975">
    <rdf:RDF>
      <cc:Work
         rdf:about="">
        <dc:format>image/svg+xml</dc:format>
        <dc:type
           rdf:resource="http://purl.org/dc/dcmitype/StillImage" />
        <cc:license
           rdf:resource="http://web.resource.org/cc/PublicDomain" />
        <dc:language>en</dc:language>
        <dc:title></dc:title>
      </cc:Work>
    </rdf:RDF>
  </metadata>
  <sodipodi:namedview
     inkscape:window-height="1004"
     inkscape:window-width="1920"
     inkscape:pageshadow="2"
     inkscape:pageopacity="0.0"
     guidetolerance="10.0"
     gridtolerance="10.0"
     objecttolerance="10.0"
     borderopacity="1.0"
     bordercolor="#666666"
     pagecolor="#ffffff"
     id="base"
     inkscape:zoom="0.46083856"
     inkscape:cx="267.3711"
     inkscape:cy="172.54638"
     inkscape:window-x="1680"
     inkscape:window-y="0"
     inkscape:current-layer="svg2"
     showgrid="false"
     inkscape:window-maximized="1" />
  <defs
     id="defs4">
    <inkscape:perspective
       sodipodi:type="inkscape:persp3d"
       inkscape:vp_x="0 : 290 : 1"
       inkscape:vp_y="0 : 1000 : 0"
       inkscape:vp_z="580 : 290 : 1"
       inkscape:persp3d-origin="290 : 193.33333 : 1"
       id="perspective2441" />
    <inkscape:perspective
       id="perspective3452"
       inkscape:persp3d-origin="30 : 20 : 1"
       inkscape:vp_z="60 : 30 : 1"
       inkscape:vp_y="0 : 1000 : 0"
       inkscape:vp_x="0 : 30 : 1"
       sodipodi:type="inkscape:persp3d" />
    <symbol
       viewBox="244.5 110 489 219.9"
       id="symbol-university">
      <path
         id="path4460"
         d="M79,43l57,119c0,0,21-96,104-96s124,106,124,106l43-133l82-17L0,17L79,43z" />
      <path
         id="path4462"
         d="M94,176l-21,39"
         stroke-width="20"
         stroke="#000000"
         fill="none" />
      <path
         id="path4464"
         d="M300,19c0,10.5-22.6,19-50.5,19S199,29.5,199,19s22.6-19,50.5-19S300,8.5,300,19z" />
      <path
         id="path4466"
         d="M112,216l-16-38L64,88c0,0-9-8-4-35s16-24,16-24"
         stroke-width="20"
         stroke="#000000"
         ill="none" />
    </symbol>
    <inkscape:perspective
       id="perspective4471"
       inkscape:persp3d-origin="372.04724 : 350.78739 : 1"
       inkscape:vp_z="744.09448 : 526.18109 : 1"
       inkscape:vp_y="0 : 1000 : 0"
       inkscape:vp_x="0 : 526.18109 : 1"
       sodipodi:type="inkscape:persp3d" />
    <inkscape:perspective
       id="perspective4668"
       inkscape:persp3d-origin="6 : 4 : 1"
       inkscape:vp_z="12 : 6 : 1"
       inkscape:vp_y="0 : 1000 : 0"
       inkscape:vp_x="0 : 6 : 1"
       sodipodi:type="inkscape:persp3d" />
  </defs>
  <g
     id="g1327">
    <path
       d="M 66.275,1.768 C 24.94,1.768 1.704,23.139 1.704,66.804 L 1.704,516.927 C 1.704,557.771 22.599,579.156 63.896,579.156 L 515.92,579.156 C 557.227,579.156 578.149,558.841 578.149,516.927 L 578.149,66.804 C 578.149,24.203 557.227,1.768 514.628,1.768 C 514.624,1.768 66.133,1.625 66.275,1.768 z "
       style="fill:#111;stroke:#eee;stroke-width:3.40799999"
       id="path1329" />
  </g>
  <path
     inkscape:connector-curvature="0"
     class="st0"
     d="m 82.365035,276.11804 v 168.86497 c 0,31.01601 24.123565,55.13958 55.139565,55.13958 h 304.99081 c 29.29286,0 55.13955,-24.12357 55.13955,-55.13958 V 276.11804"
     id="path5"
     style="fill:none;stroke:#ffffff;stroke-width:36.64569473;stroke-miterlimit:4;stroke-opacity:1;stroke-dasharray:none" />
  <path
     inkscape:connector-curvature="0"
     d="m 202.98285,160.66955 v 63.75514 h 172.31119 v -63.75514 c 0,-12.06179 -10.33867,-22.40045 -22.40045,-22.40045 H 225.38332 c -12.06179,0 -22.40047,10.33866 -22.40047,22.40045 z"
     id="path7"
     style="fill:#ffffff;fill-opacity:1" />
  <path
     inkscape:connector-curvature="0"
     d="M 426.98744,241.6558 H 151.2895 v 37.90847 c 0,31.01601 13.7849,58.58581 37.90846,77.54003 l 99.94049,74.09383 99.94049,-74.09383 c 24.1236,-18.95422 37.9085,-46.52402 37.9085,-77.54003 V 241.6558 z m -34.46227,43.0778 -34.46222,8.61556 v -17.23112 h 34.46222 v 8.61556 z m -172.31119,8.61556 -34.46224,-8.61556 v -8.61556 h 34.46224 v 17.23112 z"
     id="path13"
     style="fill:#ffffff;fill-opacity:1" />
  <path
     inkscape:connector-curvature="0"
     d="m 461.44966,395.01276 -51.6934,-32.73911 c -3.44615,3.44621 -6.89244,6.89243 -10.33865,8.61554 l -12.06178,8.61556 74.09384,46.52404 v -31.01603 z"
     id="path15"
     style="fill:#ffffff;fill-opacity:1" />
  <path
     inkscape:connector-curvature="0"
     d="m 116.82726,424.30567 74.09381,-44.80092 -10.33866,-8.61556 c -5.16934,-3.44622 -8.61557,-6.89245 -12.06179,-8.61554 l -51.69336,32.73911 v 29.29291 z"
     id="path17"
     style="fill:#ffffff;fill-opacity:1" />
  <path
     inkscape:connector-curvature="0"
     style="font-size:medium;font-style:normal;font-variant:normal;font-weight:normal;font-stretch:normal;text-indent:0;text-align:start;text-decoration:none;line-height:normal;letter-spacing:normal;word-spacing:normal;text-transform:none;direction:ltr;block-progression:tb;writing-mode:lr-tb;text-anchor:start;baseline-shift:baseline;color:#000000;fill:#ffffff;fill-opacity:1;stroke:none;stroke-width:2;marker:none;visibility:visible;display:inline;overflow:visible;enable-background:accumulate;font-family:Sans;-inkscape-font-specification:Sans"
     d="m 289.20488,61.640041 a 18.770034,18.770034 0 0 0 -2.34605,0.585574 18.770034,18.770034 0 0 0 -14.66259,18.768139 l 0,9.384087 a 18.770034,18.770034 0 0 0 0,1.758565 l 0,26.392724 37.53627,0 0,-25.219704 a 18.770034,18.770034 0 0 0 0,-2.932535 l 0,-9.384077 A 18.770034,18.770034 0 0 0 289.20488,61.63816 z"
     id="line9-7" />
</svg>

<svg width="580" height="580" viewBox="0 0 580 580" fill="none" xmlns="http://www.w3.org/2000/svg">
<g clip-path="url(#clip0)">
<path d="M66.2751 1.76766C24.9401 1.76766 1.7041 23.1387 1.7041 66.8037V516.927C1.7041 557.771 22.5991 579.156 63.8961 579.156H515.92C557.227 579.156 578.149 558.841 578.149 516.927V66.8037C578.149 24.2027 557.227 1.76766 514.628 1.76766C514.624 1.76766 66.1331 1.62466 66.2751 1.76766Z" fill="#111111" stroke="#EEEEEE" stroke-width="3.408"/>
<path d="M82.3652 276.118V444.983C82.3652 475.999 106.489 500.123 137.505 500.123H442.496C471.788 500.123 497.635 475.999 497.635 444.983V276.118" stroke="white" stroke-width="36.6457"/>
<path d="M202.982 160.67V224.425H375.294V160.67C375.294 148.608 364.955 138.27 352.893 138.27H225.383C213.321 138.27 202.982 148.608 202.982 160.67V160.67Z" fill="white"/>
<path d="M426.987 241.656H151.289V279.565C151.289 310.581 165.074 338.151 189.198 357.105L289.138 431.199L389.079 357.105C413.202 338.151 426.987 310.581 426.987 279.565V241.656ZM392.525 284.734L358.063 293.35V276.118H392.525V284.734V284.734ZM220.214 293.35L185.751 284.734V276.118H220.214V293.35V293.35Z" fill="white"/>
<path d="M461.449 395.013L409.756 362.273C406.31 365.72 402.863 369.166 399.417 370.889L387.355 379.505L461.449 426.029V395.013H461.449Z" fill="white"/>
<path d="M116.827 424.305L190.921 379.505L180.582 370.889C175.413 367.443 171.967 363.997 168.521 362.273L116.827 395.013V424.305V424.305Z" fill="white"/>
<path d="M289.205 61.6402C288.411 61.7847 287.628 61.9803 286.859 62.2257C282.621 63.1748 278.843 65.5641 276.17 68.9864C273.496 72.4087 272.092 76.6522 272.196 80.9939V90.378C272.169 90.9638 272.169 91.5507 272.196 92.1365V118.529H309.733V93.3095C309.809 92.3335 309.809 91.353 309.733 90.377V80.9929C309.828 78.3242 309.352 75.6659 308.338 73.1956C307.324 70.7253 305.794 68.4998 303.851 66.6679C301.908 64.8359 299.597 63.4396 297.071 62.5723C294.545 61.705 291.864 61.3865 289.205 61.6383V61.6402Z" fill="white"/>
</g>
<defs>
<clipPath id="clip0">
<path d="M0 0H580V580H0V0Z" fill="white"/>
</clipPath>
</defs>
</svg>
